X: 1
T: Lady Dick Lauder's Strathspey
R: strathspey
B: RSCDS 29-4
Z: 2006 by John Chambers <jc:trillian.mit.edu>
S: printed MS from Barbara McOwen dated Feg 1987
D: J. Taylor Album
M: C
L: 1/16
K: A
E \
| "A"ABc2 A3E "D"FA3 "A"EA3 | "A"E3F A3B "E7"cB3 B3c \
| "A"ABc2 A3E "D"FA3 "A"EA3 | "Bm"F3E D3C  "E7"B,4 "A"A,3 :|
c \
| "A"AAA2 c3A e3A ce3 | "D"d3f "A"c3e "Bm"fedc "E7"B3c \
| "A"AAA2 c3A e3A ce3 | "D"d3f "Bm"fedc "E7"B4 "A"A3 ||
c \
| "A"AAA2 c3A "F#m"e3A ce3 | "D"d3f "A"ce "Bm"fedc "E7"B3c \
| "A"ABc2 A3E "D"FA3 "Bm"df3 | "A"e3a "D"fedc "E7"B4 "A"A3 |]
